svgs/light/baseball-bat-ball.svg

<svg xmlns="http://www.w3.org/2000/svg" viewBox="0 0 640 512"><!-- Font Awesome Pro 6.0.0-alpha2 by @fontawesome - https://fontawesome.com License - https://fontawesome.com/license (Commercial License) --><path d="M627.281 60.172L603.654 27.674C581.027 -3.447 538.9 -8.197 510.023 12.801L307.759 159.662C262.13 192.783 220.379 230.904 183.377 273.4C154.375 306.771 110.871 352.016 53.119 394.012L31.492 409.76C31.242 409.385 20.24 392.262 5.99 403.512C-0.885 409.01 -2.01 419.135 3.49 426.01L67.494 506C72.744 512.5 82.746 514.25 89.996 508.5C90.496 508.125 102.871 499.002 90.121 483.004L108.246 469.754C174.252 421.885 230.629 397.262 263.382 383.264C315.259 361.266 364.638 333.393 410.265 300.271L612.529 153.537C642.281 131.789 648.906 90.043 627.281 60.172ZM70.119 458.006L51.494 434.758C80.369 413.885 123.248 384.139 176.502 328.52L208.754 372.889C140.623 405.762 99.246 436.758 70.119 458.006ZM593.652 127.664C346.636 306.771 350.511 310.146 233.755 361.391L195.002 308.271C279.882 213.281 281.507 218.154 528.773 38.799C543.65 28.049 565.777 30.049 577.777 46.422L601.279 78.92C612.779 94.543 609.279 116.291 593.652 127.664ZM496 352C451.875 352 416 387.877 416 432C416 476.125 451.875 512 496 512S576 476.125 576 432C576 387.877 540.125 352 496 352ZM496 480C469.498 480 448 458.5 448 432C448 405.502 469.498 384.002 496 384.002C522.5 384.002 544 405.502 544 432C544 458.5 522.5 480 496 480Z"/></svg>

<svg xmlns="http://www.w3.org/2000/svg" viewBox="0 0 640 512"><!--! Font Awesome Pro 6.0.0-alpha3 by @fontawesome - https://fontawesome.com License - https://fontawesome.com/license (Commercial License) --><path d="M627.3 60.18l-23.63-32.5c-22.63-31.12-64.75-35.87-93.63-14.87L307.8 159.7c-45.63 33.12-87.37 71.25-124.4 113.7c-29 33.37-72.53 78.59-130.3 120.6l-21.63 15.75c-.25-.375-11.25-17.5-25.5-6.248c-6.875 5.498-8 15.62-2.5 22.5l64 79.99c5.25 6.5 15.25 8.25 22.5 2.5c.5-.375 12.88-9.498 .125-25.5l18.12-13.25c66.01-47.87 122.4-72.46 155.2-86.46c51.88-21.1 101.2-49.88 146.9-82.1l202.3-146.7C642.3 131.8 648.9 90.05 627.3 60.18zM70.12 458l-18.62-23.25c28.88-20.87 71.75-50.62 125-106.2l32.25 44.37C140.6 405.8 99.25 436.8 70.12 458zM593.7 127.7c-247 179.1-243.1 182.5-359.9 233.7L195 308.3c84.88-94.99 86.51-90.12 333.8-269.5c14.88-10.75 37-8.75 49 7.623l23.5 32.5C612.8 94.54 609.3 116.3 593.7 127.7zM496.1 352C451.1 352 416 387.9 416 432c0 44.13 35.97 80 80.09 80s79.91-35.88 79.91-80C576 387.9 540.2 352 496.1 352zM496 480c-26.5 0-48-21.5-48-48c0-26.5 21.5-47.1 48-47.1c26.5 0 48 21.5 48 47.1C544 458.5 522.5 480 496 480z"/></svg>
